X:4
T:Thunderhead
S:Lunasa
Z:robin.beech@mcgill.ca
R:seven-eight
M:7/8
L:1/8
K:Bphr
BBB fBBf | eBB dBBA | BBB f2gf | edB AGGc |
BBB fBBf | eBB dBef | gfe fddB | ADF ABBc ::
dGG AGGE | DEG F2F2 | EFF EFFF | GFE F2F2 |
dGG AGGE | DEG F2GA |1 BdB ceeg | f/g/af g2ge :|2 Bdef gfed |  BAGGc |]
